dist/flags/zmb.svg

<?xml version="1.0" encoding="UTF-8"?>
<svg xmlns="http://www.w3.org/2000/svg" width="2100" height="1400">
	<rect width="2100" height="1400" fill="#198a00"/>
	<rect x="1850" y="500" width="250" height="900" fill="#ef7d00"/>
	<rect x="1600" y="500" width="250" height="900" fill="#000"/>
	<rect x="1350" y="500" width="250" height="900" fill="#de2010"/>
	<g fill="#ef7d00" stroke="#000" stroke-width="2.25" stroke-linecap="round" stroke-linejoin="round">
		<path d="M 1916.4245,168.3344 C 1916.4245,168.3344 2002.4265,134.6285 2010.7593,127.6785 C 2014.5489,131.8483 1976.2829,174.2418 1902.0276,189.87871 C 1969.4633,175.2842 2027.0511,129.4158 2038.7957,130.8058 C 2042.2056,131.5008 2041.4461,175.6316 1886.8731,213.85517 C 1993.7101,188.14097 2055.8431,140.8829 2055.0855,146.0952 C 2055.8431,147.1376 2044.4782,183.27622 1950.9008,211.42263 C 1977.0424,205.86205 2047.8881,166.2494 2047.1305,173.8943 C 2049.4031,177.0216 1978.5575,260.41781 1850.5039,233.31502 C 1952.7956,257.63859 2019.0941,198.91314 2028.5661,199.95564 C 2030.4609,200.30309 2009.6221,251.38355 1880.8128,254.51107 C 1942.568,248.60433 1924.7593,254.16286 1924.7593,254.16286 C 1924.7593,254.16286 1888.3881,280.22426 1844.4417,262.50402 C 1878.918,271.19178 1882.7056,271.53828 1883.4633,274.31751 C 1881.1906,277.79154 1852.7764,283.00526 1825.4995,269.45208 C 1847.4718,277.79154 1867.1733,279.18294 1867.5512,282.31046 C 1867.1733,283.35177 1853.1561,290.64992 1840.654,285.43798 C 1828.1518,280.22426 1712.9782,215.24513 1712.9782,215.24513 L 1909.227,165.902 z"/>
		<path d="M 1685.7126,344.10525 C 1668.4556,344.10525 1667.9794,358.19028 1667.9794,358.19028 C 1667.9794,358.19028 1666.5551,359.20736 1667.5052,366.03421 C 1670.3541,361.38542 1671.7804,359.93337 1671.7804,359.93337 C 1673.6808,360.22451 1681.5962,362.40249 1694.104,353.39936 C 1682.7032,364.28942 1689.5134,368.35602 1689.5134,368.35602 C 1689.5134,368.35602 1686.8216,376.92419 1695.5285,378.66728 C 1692.8383,375.18109 1694.4214,372.13156 1694.4214,372.13156 C 1694.4214,372.13156 1706.6118,370.97066 1705.8204,357.32052 C 1706.2964,369.66245 1713.5789,372.71197 1713.5789,372.71197 C 1713.5789,372.71197 1713.5789,379.53704 1721.4943,380.11924 C 1717.2212,376.63305 1718.1694,371.26002 1718.1694,371.26002 C 1718.1694,371.26002 1728.4613,364.43494 1719.7526,352.81725 C 1724.9778,350.05699 1729.2529,342.36216 1729.2529,342.36216 C 1729.2529,342.36216 1722.1291,339.60198 1718.8042,337.28017 C 1717.2192,334.22886 1718.6456,317.52919 1718.6456,317.52919 L 1714.3704,295.89129 L 1702.1781,329.58356 C 1702.6522,324.79085 1702.9697,344.10525 1685.7126,344.10525 z"/>
		<path d="M 1770.9438,295.51356 C 1771.3216,295.86186 1783.8256,308.72015 1795.9482,308.02364 C 1800.4933,304.54953 1786.4761,296.90496 1786.4761,295.16705 C 1791.401,299.33759 1812.238,315.66829 1825.4995,309.76147 C 1830.8022,302.81171 1816.0275,303.85472 1799.7358,285.08968 C 1811.1007,292.03953 1839.5168,307.32884 1852.7764,301.42209 C 1858.4607,295.86186 1823.225,278.48634 1811.4804,264.93494 L 1781.1734,250.68874 L 1739.8773,281.61565 z"/>
		<path d="M 1724.3449,189.87853 C 1724.3449,189.87853 1738.3622,182.23388 1794.433,186.05621 C 1800.4952,186.75101 1832.6971,175.9792 1842.9266,172.8518 C 1859.2164,170.0719 1911.1199,159.6472 1925.1389,149.9175 C 1934.9888,148.8752 1922.4847,166.597 1909.9846,170.7667 C 1896.7229,176.32663 1848.6091,191.61602 1831.5597,189.53109 C 1852.0189,189.87871 1840.654,205.16792 1806.5555,197.87072 C 1822.8472,206.21035 1816.785,207.6003 1816.785,207.6003 C 1816.785,207.6003 1787.993,208.99025 1780.4158,203.083 C 1799.7377,209.68531 1791.7807,212.11761 1791.7807,212.11761 C 1791.7807,212.11761 1772.0811,213.855 1762.9868,210.03267 C 1777.0041,213.855 1769.8065,216.28754 1769.8065,216.28754 C 1769.8065,216.28754 1758.4416,218.02494 1748.9696,214.89759 C 1739.4994,211.77024 1725.1025,189.87853 1724.3449,189.87853 z"/>
		<path d="M 1746.8274,302.71636 L 1748.8865,336.69798 C 1748.8865,336.69798 1747.7776,338.44108 1746.8274,339.45816 C 1745.8771,340.47353 1720.5441,335.82644 1724.0276,353.54318 C 1724.0276,360.80493 1724.1863,362.69184 1729.5703,366.75845 C 1728.144,361.96582 1728.6201,358.62694 1728.6201,358.62694 C 1728.6201,358.62694 1735.7439,362.54802 1742.711,351.80187 C 1737.9617,362.40249 1741.2846,366.17804 1742.3936,366.46909 C 1743.5025,368.35772 1740.495,376.92419 1749.9935,376.77866 C 1746.3532,373.58352 1748.0949,368.93642 1748.0949,368.93642 C 1748.0949,368.93642 1758.0695,367.48617 1754.5859,350.93033 C 1758.2281,347.58966 1759.6525,350.78479 1759.6525,350.78479 C 1759.6525,350.78479 1760.7596,360.65939 1769.4684,358.62694 C 1773.428,360.65939 1768.8356,366.03242 1768.8356,366.03242 C 1768.8356,366.03242 1775.1678,366.17804 1777.0683,361.23981 C 1778.9688,356.30336 1781.1847,347.44413 1770.7341,343.81411 C 1769.4684,340.32971 1774.8524,340.03856 1774.8524,340.03856 C 1774.8524,340.03856 1781.502,342.07101 1783.4006,345.12063 C 1785.3011,348.17015 1784.6682,337.13456 1776.4354,335.97196 C 1766.3022,335.68091 1765.6694,333.79399 1765.6694,333.35902 C 1765.6694,332.92244 1763.9276,308.67167 1763.1361,301.70098 z"/>
		<path d="M 1782.0688,331.67486 C 1782.1934,330.11719 1764.7834,308.61621 1769.2001,305.83699 C 1773.6149,306.67035 1780.8559,316.44969 1786.7216,313.27539 C 1784.9439,309.46353 1779.7036,311.61029 1773.7529,301.85179 C 1767.8041,290.81969 1766.9351,274.25865 1746.0981,256.19352 C 1759.5883,275.31034 1790.1901,286.5157 1791.4861,280.9416 C 1792.782,275.3675 1764.5397,254.28933 1765.9868,249.20906 C 1771.6031,259.64161 1799.9606,282.88746 1820.8542,280.96244 C 1822.2862,276.48689 1803.7445,267.45433 1798.9726,259.01961 C 1785.626,250.79616 1749.9084,222.55764 1749.1925,216.00857 C 1736.1954,198.622 1728.0817,193.36226 1724.3034,191.35975 C 1722.8431,189.78217 1722.4767,188.27399 1722.1914,187.31517 C 1714.123,169.8692 1724.8097,164.2041 1731.0646,163.3664 C 1736.2124,162.8417 1737.7067,163.5485 1741.4113,161.9032 C 1737.0247,160.3293 1732.6401,158.8574 1728.2554,157.2835 C 1733.9738,161.1307 1748.5805,157.7436 1745.4143,168.8249 C 1751.8184,166.5901 1765.4446,151.7209 1729.9707,148.3652 C 1718.4264,136.218 1670.9623,129.237 1659.0818,182.2531 C 1660.0301,182.99639 1660.5269,183.60716 1663.5458,185.67499 C 1648.5575,179.01161 1608.1248,173.8732 1593.554,171.7138 C 1554.1905,161.297 1513.3099,136.1939 1509.3802,139.2811 C 1504.1242,141.4208 1533.1636,166.2005 1531.6542,166.749 C 1506.4747,153.2833 1483.4723,143.7431 1462.0688,135.0617 C 1447.0114,129.8992 1431.9299,117.8797 1430.2669,120.1662 C 1424.7253,130.6954 1454.4075,157.1623 1459.9287,160.2757 C 1465.4516,163.2539 1508.8759,181.72909 1508.2356,181.95975 C 1442.8304,154.731 1431.8645,149.7947 1428.5824,146.6553 C 1422.8177,145.4644 1408.775,128.074 1404.8615,129.1923 C 1402.719,131.1229 1407.0161,158.6011 1438.2263,170.9357 C 1443.3134,174.3363 1505.1266,194.67481 1504.5213,196.26941 C 1504.3701,196.66789 1433.7231,169.5256 1430.9789,168.5552 C 1417.358,163.6563 1400.6447,146.4846 1397.5201,148.4156 C 1394.5379,150.1678 1405.2248,168.754 1418.9884,174.5834 C 1426.2027,177.50343 1453.8752,190.0745 1478.8069,198.07552 C 1480.3981,198.60329 1433.9924,181.93483 1411.6811,173.3834 C 1401.5649,168.2337 1396.801,161.8148 1395.2601,163.1959 C 1392.9808,164.5768 1398.9425,192.03295 1470.6403,207.52545 C 1472.5293,208.26287 1495.8781,202.45215 1494.7241,203.22283 C 1494.4354,203.41556 1471.5384,207.98755 1469.309,207.83131 C 1467.3249,207.55335 1454.781,209.19336 1454.5541,209.78959 C 1453.7962,211.64683 1459.0989,221.47779 1496.1182,219.42766 C 1500.8508,219.16671 1526.5335,210.84928 1524.3758,212.63847 C 1523.2969,213.53358 1489.403,223.63519 1486.8217,223.83447 C 1484.5797,224.12502 1472.6728,225.26704 1472.2326,226.42862 C 1471.695,228.01284 1481.0459,235.00963 1500.9262,236.13064 C 1518.5282,236.98833 1551.9751,226.26591 1551.3042,226.96106 C 1550.6331,227.65612 1519.0604,237.5792 1518.2342,238.18393 C 1517.0918,238.77651 1505.5304,239.35172 1505.1246,240.16612 C 1504.1825,242.19168 1521.802,257.30424 1573.911,241.1763 C 1568.6762,247.66176 1543.4181,252.09749 1543.4544,253.26528 C 1543.3373,254.11259 1549.0191,259.14779 1557.8497,260.94983 C 1562.2647,261.85081 1568.3098,261.66709 1573.8316,260.86664 C 1583.7496,259.04555 1594.202,255.44675 1607.4824,244.18943 C 1609.0694,247.7224 1574.3077,263.85722 1575.9399,265.39586 C 1583.4775,271.80689 1608.5159,264.56939 1610.1556,263.72905 C 1611.7972,262.88693 1658.3714,238.79904 1658.2108,236.01114 C 1658.9344,239.58392 1598.1654,269.86969 1598.8209,271.11208 C 1602.7219,276.82124 1623.4814,270.81226 1624.4731,270.28731 C 1625.4631,269.76397 1650.9661,257.1275 1651.665,256.75496 C 1652.3622,256.38243 1621.6924,273.21904 1624.4241,275.78162 C 1623.1036,286.71498 1672.3226,268.23581 1676.1801,265.93476 C 1678.1089,264.78423 1652.5359,276.24772 1652.4679,281.69356 C 1660.7027,294.46357 1687.0709,290.41253 1691.1381,287.60379 C 1693.1727,286.19862 1688.7446,297.09029 1690.1709,296.10094 C 1690.6678,295.89648 1695.9063,290.21495 1697.9201,286.10327 C 1697.2777,289.67094 1694.3874,295.29174 1692.7004,301.74087 C 1691.0116,308.18993 1690.5279,315.46723 1688.2101,323.19855 C 1687.6791,326.59459 1704.4583,316.5589 1702.0213,292.56797 C 1703.4571,305.04684 1696.7224,328.38106 1698.4848,329.59393 C 1702.01,332.01968 1711.7559,317.97275 1712.7401,308.47409 C 1715.6343,313.2719 1721.7078,323.28692 1726.9331,325.59137 C 1726.3645,318.33312 1727.0332,318.66586 1724.6813,311.53229 C 1726.0376,302.06144 1726.2266,288.9536 1726.5552,274.15293 C 1740.7539,299.1002 1746.4174,309.63499 1742.4503,328.73974 C 1746.6724,330.35457 1753.4165,315.40489 1752.8725,307.70996 C 1758.2943,329.09143 1781.6966,332.29695 1782.0688,331.67486 z"/>
		<path d="M 1545.5749,173.2876 C 1545.5749,173.2876 1535.9106,179.9848 1523.8842,179.591 C 1526.8908,190.62165 1551.8029,182.15172 1551.8029,182.15172 C 1551.8029,182.15172 1539.7764,194.36428 1531.1861,196.33396 C 1536.3403,200.27349 1558.0311,198.89477 1561.6827,196.925 C 1565.3326,194.95515 1571.7762,187.27308 1571.7762,187.27308 C 1571.7762,187.27308 1549.4406,210.91026 1546.2193,210.71344 C 1545.7897,213.47107 1569.6284,212.48614 1574.5684,208.34971 C 1579.5066,204.21311 1591.9634,198.10691 1591.9634,198.10691 C 1591.9634,198.10691 1559.3195,218.98639 1557.8157,218.98639 C 1570.0573,221.94117 1594.5402,215.44075 1610.2179,206.57684 C 1587.0233,220.75926 1584.8773,223.31981 1573.0646,228.04728 C 1583.5889,230.2142 1588.9559,236.71462 1624.6073,222.53196 C 1645.0097,213.66823 1656.6051,197.51588 1656.6051,197.51588 C 1643.9348,213.07718 1623.9613,226.27561 1601.8435,239.27551 C 1600.5532,241.63891 1625.4649,251.28999 1657.2493,220.95624"/>
		<path d="M 1718.2413,239.07802 C 1718.2413,239.07802 1720.3891,248.33581 1728.9789,255.42769 C 1737.5707,262.51788 1738.2149,269.41228 1738.2149,269.41228"/>
		<path d="M 1713.9473,178.80314 C 1713.9473,178.80314 1716.9529,187.07601 1725.758,192.39452 C 1734.7786,197.71286 1748.3103,214.45591 1749.3833,217.41051 C 1750.4223,220.98661 1755.6098,246.76077 1755.1811,249.51746"/>
		<path d="M 1659.1838,191.60649 C 1659.8279,194.75808 1646.5116,210.71344 1664.7661,229.42617 C 1648.2288,247.94073 1648.2307,250.30583 1648.2307,250.30583 C 1648.2307,250.30583 1657.4646,255.03262 1674.0019,242.0322 C 1701.2751,272.76153 1692.1866,286.82411 1692.1866,286.82411"/>
		<path d="M 1690.0141,265.13074 C 1690.0141,265.13074 1687.5016,261.82996 1691.9807,249.5036 C 1696.0139,253.96009 1700.4987,254.91133 1702.4653,256.71508 C 1704.4299,258.51881 1725.0232,261.25304 1726.3323,273.87565"/>
		<path d="M 1714.2231,149.4322 C 1714.2231,148.5049 1710.0765,140.3439 1694.6066,150.5451 C 1702.8979,151.0086 1711.0872,155.3674 1714.2231,149.4322 z"/>
		<path d="M 1861.8688,186.75118 C 1862.6263,187.09854 1908.0897,196.13332 1923.2443,191.61602 C 1903.9224,215.24513 1865.2786,199.26067 1865.2786,199.26067 C 1884.2207,204.47295 1884.9802,204.12559 1891.0404,208.99025 C 1892.9352,213.50756 1856.1863,211.42263 1844.0619,205.16792 C 1877.7808,214.89759 1878.5384,214.20262 1879.6755,218.02494 C 1881.1926,223.23722 1824.3623,216.63491 1819.4373,209.68531 C 1834.5918,220.45741 1842.9266,222.54242 1851.2614,227.40708 C 1841.0319,231.57703 1822.0896,235.74603 1787.2336,213.16019 C 1833.0748,251.38355 1874.371,248.95092 1880.8128,255.90068 C 1864.9008,277.44503 1803.1456,243.04417 1774.7314,225.66951 C 1746.3173,208.29527 1836.8644,267.71596 1845.2011,266.67286 C 1841.0319,272.5796 1811.1026,267.36766 1809.2077,264.58844"/>
		<path d="M 1873.6134,226.71211 C 1868.3106,227.40708 1852.3986,227.40708 1850.126,227.05955"/>
		<path d="M 1532.2598,166.9845 C 1532.2598,166.9845 1566.8363,183.72743 1581.4391,182.54561 C 1577.574,185.89418 1571.7744,187.27308 1571.7744,187.27308 C 1575.4261,188.65197 1585.5196,193.57642 1600.7685,190.42467 C 1597.1169,193.77324 1592.3922,197.51604 1592.3922,197.51604 C 1592.3922,197.51604 1605.4932,202.04636 1620.3114,194.95515 C 1615.8021,200.07642 1613.2234,203.81922 1613.2234,203.81922 L 1623.5324,204.41009"/>
	</g>
</svg>

<svg xmlns="http://www.w3.org/2000/svg" width="2100" height="1400"><path fill="#198a00" d="M0 0h2100v1400H0z"/><path fill="#ef7d00" d="M1850 500h250v900h-250z"/><path d="M1600 500h250v900h-250z"/><path fill="#de2010" d="M1350 500h250v900h-250z"/><g fill="#ef7d00" stroke="#000" stroke-width="2.25" stroke-linecap="round" stroke-linejoin="round"><path d="M1916.425 168.334s86.002-33.706 94.334-40.656c3.79 4.17-34.476 46.564-108.731 62.2 67.435-14.594 125.023-60.462 136.768-59.072 3.41.695 2.65 44.826-151.923 83.05 106.837-25.715 168.97-72.973 168.213-67.76.757 1.042-10.608 37.18-104.185 65.327 26.141-5.56 96.987-45.174 96.23-37.529 2.272 3.128-68.574 86.524-196.627 59.421 102.292 24.324 168.59-34.402 178.062-33.36 1.895.348-18.944 51.429-147.753 54.556 61.755-5.907 43.946-.348 43.946-.348s-36.37 26.061-80.317 8.341c34.476 8.688 38.264 9.034 39.021 11.814-2.272 3.474-30.687 8.687-57.964-4.866 21.973 8.34 41.674 9.73 42.052 12.858-.378 1.042-14.395 8.34-26.897 3.128-12.502-5.214-127.676-70.193-127.676-70.193l196.249-49.343zM1685.713 344.105c-17.257 0-17.734 14.085-17.734 14.085s-1.424 1.017-.474 7.844c2.85-4.649 4.275-6.1 4.275-6.1 1.9.29 9.816 2.468 22.324-6.535-11.4 10.89-4.59 14.957-4.59 14.957s-2.692 8.568 6.014 10.311c-2.69-3.486-1.107-6.535-1.107-6.535s12.19-1.161 11.4-14.811c.475 12.341 7.758 15.391 7.758 15.391s0 6.825 7.915 7.407c-4.273-3.486-3.325-8.859-3.325-8.859s10.292-6.825 1.584-18.443c5.225-2.76 9.5-10.455 9.5-10.455s-7.124-2.76-10.449-5.082c-1.585-3.051-.158-19.75-.158-19.75l-4.276-21.639-12.192 33.693c.474-4.793.792 14.521-16.465 14.521z"/><path d="M1770.944 295.514c.378.348 12.882 13.206 25.004 12.51 4.545-3.474-9.472-11.119-9.472-12.857 4.925 4.17 25.762 20.501 39.023 14.594 5.303-6.95-9.472-5.906-25.763-24.671 11.365 6.95 39.78 22.239 53.04 16.332 5.685-5.56-29.551-22.936-41.296-36.487l-30.307-14.246-41.296 30.927zM1724.345 189.879s14.017-7.645 70.088-3.823c6.062.695 38.264-10.077 48.494-13.204 16.29-2.78 68.193-13.205 82.212-22.935 9.85-1.042-2.654 16.68-15.154 20.85-13.262 5.56-61.376 20.849-78.425 18.764 20.459.348 9.094 15.637-25.005 8.34 16.292 8.34 10.23 9.73 10.23 9.73s-28.792 1.39-36.37-4.518c19.323 6.602 11.366 9.035 11.366 9.035s-19.7 1.737-28.794-2.085c14.017 3.822 6.82 6.255 6.82 6.255s-11.365 1.737-20.837-1.39c-9.47-3.128-23.868-25.02-24.625-25.02zM1746.827 302.716l2.06 33.982s-1.11 1.743-2.06 2.76c-.95 1.016-26.283-3.632-22.8 14.085 0 7.262.16 9.149 5.543 13.215-1.426-4.792-.95-8.131-.95-8.131s7.124 3.921 14.091-6.825c-4.75 10.6-1.426 14.376-.317 14.667 1.109 1.889-1.899 10.455 7.6 10.31-3.64-3.195-1.9-7.843-1.9-7.843s9.976-1.45 6.492-18.006c3.642-3.34 5.066-.145 5.066-.145s1.108 9.874 9.816 7.842c3.96 2.032-.632 7.405-.632 7.405s6.332.146 8.232-4.792c1.9-4.937 4.117-13.796-6.334-17.426-1.266-3.484 4.118-3.775 4.118-3.775s6.65 2.032 8.549 5.082c1.9 3.05 1.267-7.986-6.966-9.149-10.133-.291-10.766-2.178-10.766-2.613 0-.437-1.741-24.687-2.533-31.658z"/><path d="M1782.069 331.675c.124-1.558-17.286-23.059-12.869-25.838 4.415.833 11.656 10.613 17.522 7.438-1.778-3.811-7.018-1.665-12.97-11.423-5.948-11.032-6.817-27.593-27.654-45.658 13.49 19.116 44.092 30.322 45.388 24.748 1.296-5.575-26.946-26.653-25.5-31.733 5.617 10.433 33.975 33.678 54.868 31.753 1.432-4.475-17.11-13.508-21.881-21.942-13.347-8.224-49.065-36.462-49.78-43.011-12.998-17.387-21.111-22.647-24.89-24.65-1.46-1.577-1.826-3.085-2.112-4.044-8.068-17.446 2.619-23.11 8.874-23.949 5.147-.524 6.642.182 10.346-1.463-4.386-1.574-8.77-3.046-13.156-4.62 5.719 3.848 20.325.46 17.16 11.542 6.403-2.235 20.03-17.104-15.444-20.46-11.545-12.147-59.009-19.128-70.89 33.888.95.743 1.446 1.354 4.465 3.422-14.989-6.663-55.421-11.802-69.992-13.961-39.364-10.417-80.244-35.52-84.174-32.433-5.256 2.14 23.784 26.92 22.274 27.468-25.18-13.466-48.182-23.006-69.585-31.687-15.058-5.163-30.14-17.182-31.802-14.896-5.542 10.53 24.14 36.996 29.662 40.11 5.523 2.978 48.947 21.453 48.307 21.684-65.406-27.229-76.372-32.165-79.654-35.305-5.764-1.19-19.807-18.581-23.72-17.463-2.143 1.93 2.154 29.41 33.364 41.744 5.087 3.4 66.9 23.739 66.295 25.333-.15.399-70.798-26.743-73.542-27.714-13.621-4.899-30.334-22.07-33.459-20.14-2.982 1.753 7.705 20.339 21.468 26.168 7.215 2.92 34.887 15.492 59.819 23.493 1.591.527-44.815-16.141-67.126-24.693-10.116-5.15-14.88-11.568-16.42-10.187-2.28 1.38 3.682 28.837 75.38 44.33 1.888.737 25.237-5.074 24.083-4.303-.289.193-23.186 4.765-25.415 4.608-1.984-.278-14.528 1.362-14.755 1.959-.758 1.857 4.545 11.688 41.564 9.638 4.733-.261 30.416-8.579 28.258-6.79-1.08.896-34.973 10.997-37.554 11.196-2.242.291-14.15 1.433-14.59 2.595-.537 1.584 8.814 8.58 28.694 9.702 17.602.857 51.05-9.865 50.378-9.17-.67.695-32.244 10.618-33.07 11.223-1.142.593-12.704 1.168-13.11 1.982-.942 2.026 16.678 17.138 68.787 1.01-5.235 6.486-30.493 10.921-30.457 12.09-.117.847 5.565 5.882 14.396 7.684 4.415.9 10.46.717 15.982-.083 9.918-1.821 20.37-5.42 33.65-16.678 1.587 3.533-33.174 19.668-31.542 21.207 7.537 6.41 32.576-.827 34.216-1.667 1.641-.842 48.215-24.93 48.055-27.718.723 3.573-60.046 33.859-59.39 35.101 3.9 5.71 24.66-.3 25.652-.825.99-.523 26.493-13.16 27.192-13.532.697-.373-29.973 16.464-27.24 19.027-1.321 10.933 47.898-7.546 51.755-9.847 1.929-1.15-23.644 10.313-23.712 15.759 8.235 12.77 34.603 8.719 38.67 5.91 2.035-1.405-2.393 9.486-.967 8.497.497-.205 5.735-5.886 7.75-9.998-.643 3.568-3.534 9.189-5.22 15.638-1.69 6.449-2.173 13.726-4.49 21.458-.532 3.396 16.247-6.64 13.81-30.631 1.436 12.479-5.299 35.813-3.536 37.026 3.525 2.426 13.27-11.621 14.255-21.12 2.894 4.798 8.968 14.813 14.193 17.117-.569-7.258.1-6.925-2.252-14.059 1.357-9.47 1.546-22.578 1.874-37.38 14.199 24.948 19.862 35.483 15.895 54.588 4.222 1.615 10.966-13.335 10.422-21.03 5.422 21.381 28.825 24.587 29.197 23.965z"/><path d="M1545.575 173.288s-9.664 6.697-21.69 6.303c3.006 11.03 27.918 2.56 27.918 2.56s-12.027 12.213-20.617 14.183c5.154 3.94 26.845 2.56 30.497.591 3.65-1.97 10.093-9.652 10.093-9.652s-22.335 23.637-25.557 23.44c-.43 2.758 23.41 1.773 28.35-2.363 4.938-4.137 17.394-10.243 17.394-10.243s-32.643 20.88-34.147 20.88c12.241 2.954 36.724-3.546 52.402-12.41-23.195 14.182-25.34 16.743-37.153 21.47 10.524 2.167 15.89 8.668 51.542-5.515 20.403-8.864 31.998-25.016 31.998-25.016-12.67 15.561-32.644 28.76-54.762 41.76-1.29 2.363 23.622 12.014 55.406-18.32M1718.241 239.078s2.148 9.258 10.738 16.35c8.592 7.09 9.236 13.984 9.236 13.984M1713.947 178.803s3.006 8.273 11.811 13.592c9.02 5.318 22.552 22.06 23.625 25.016 1.04 3.576 6.227 29.35 5.798 32.106"/><path d="M1659.184 191.606c.644 3.152-12.672 19.107 5.582 37.82-16.537 18.515-16.535 20.88-16.535 20.88s9.234 4.727 25.77-8.274c27.274 30.73 18.186 44.792 18.186 44.792"/><path d="M1690.014 265.13s-2.512-3.3 1.967-15.626c4.033 4.456 8.518 5.407 10.484 7.211 1.965 1.804 22.558 4.538 23.867 17.16M1714.223 149.432c0-.927-4.147-9.088-19.616 1.113 8.29.464 16.48 4.822 19.616-1.113zM1861.869 186.751c.757.348 46.22 9.382 61.375 4.865-19.322 23.63-57.965 7.645-57.965 7.645 18.942 5.212 19.701 4.865 25.761 9.73 1.895 4.517-34.854 2.432-46.978-3.823 33.719 9.73 34.476 9.035 35.614 12.857 1.517 5.212-55.314-1.39-60.239-8.34 15.155 10.772 23.49 12.857 31.824 17.722-10.23 4.17-29.171 8.339-64.027-14.247 45.84 38.224 87.137 35.79 93.579 42.74-15.912 21.545-77.667-12.856-106.082-30.23-28.414-17.375 62.133 42.046 70.47 41.003-4.17 5.907-34.098.695-35.993-2.085M1873.613 226.712c-5.302.695-21.214.695-23.487.348M1532.26 166.984s34.576 16.743 49.18 15.562c-3.866 3.348-9.666 4.727-9.666 4.727 3.652 1.379 13.746 6.303 28.995 3.152-3.652 3.348-8.377 7.091-8.377 7.091s13.101 4.53 27.92-2.56c-4.51 5.12-7.089 8.863-7.089 8.863l10.31.591"/></g></svg>
